X:1
T:Title
%%score [ ( 1 2 ) ( 3 4 ) ]
L:1/8
Q:1/4=120
M:3/4
K:G
V:1 treble nm="Midi_74" snm=" "
V:2 treble 
V:3 bass nm="Midi_74"
V:4 bass 
V:1
"^Robert Bridges"!mf!!mp!!mp! B2!mf! A2 G2 |"^Happy are they" F6 | d2 c2 B2 |"^William Croft" A4 || %4
w: Hap- py are|they,|they that love|God,|
w: ||||
w: Christ to their|homes|giv- eth his|peace,|
 A2 | B4 d2 | d4 ^c2 | d4 || A2 | (A3 c) B2 | c4 B2 | B4 A2 | B4 || d2 | (G2 A2) B2 | B4 (AG) | %16
w: Whose|hearts have|Christ con-|fest,|Who|by * his|Cross have|found their|life,|And|'neath * his|yoke their *|
w: ||||||||||||
w: And|makes their|loves his|own:|But|ah, * what|tares the|e- vil|one|Hath|in * his|gar- den *|
 G6 |]"^Unison"!mp! B2 A2 G2 | F6 | d2 c2 B2 | A4 || A2 | B4 d2 | d4 ^c2 | d4 || %25
w: rest.|Then shall they|know,|they that love|him,|How|all their|pain is|good;|
w: |||||||||
w: sown!|||||||||
"^cresc.""^This edition produced by Andrew Sims  2008" A2 | (A3 c) B2 | c4 B2 | B4 A2 | B4 || d2 | %31
w: And|death * it-|self can-|not un-|bind|Their|
w: ||||||
w: ||||||
 (G2 A2) B2 | B4 (AG) | G6 |] %34
w: hap * py|bro- ther *|hood.|
w: |||
w: |||
V:2
 D2 D2 D2 | D6 | G2 F2 G2 | F4 || A2 | G4 GF | (F2 E2) G2 | F4 || F2 | (E3 A) ^G2 | A4 D2 | E4 F2 | %12
w: ||||||||||||
w: Glad is the|praise,|sweet are the|songs,|When|they to *|ge * ther|sing;|And|strong * the|prayers that|bow the|
w: ||||||||||||
w: Sad were our|lot,|e- vil this|earth,|Did|not its *|sor * rows|prove|The|path * where-|by the|sheep may|
 ^D4 || !courtesy!=D2 | (E2 F2) G2 | G4 FG | D6 |] x6 | x6 | x6 | x4 || x2 | x6 | x6 | x4 || x2 | %26
w: ||||||||||||||
w: ear|Of|heav'n's * e-|ter- nal *|King.||||||||||
w: ||||||||||||||
w: find|The|fold * of|Je- su's *|love.||||||||||
 x6 | x6 | x6 | x4 || x2 | x6 | x6 | x6 |] %34
w: ||||||||
w: ||||||||
w: ||||||||
w: ||||||||
V:3
 G,2 A,2 B,2 | A,6 | B,2 C2 D2 | D4 || D2 | D4 D2 | (D2 E2) E2 | D4 || D2 | E4 ED | C4 G,2 | %11
 G,4 A,2 | F,4 || G,2 | C4 B,2 | D4 C2 | B,6 |][M:3/4] z6 | z6 | z6 | z4 || z2 | z6 | z6 | z4 || %25
[M:3/4] z2 | z6 | z6 | z6 | z4 || z2 | z6 | z6 | z6 |] %34
V:4
 G,2 F,2 G,2 | D,6 | B,2 A,2 G,2 | D,4 || F,2 | G,4 B,2 | A,4 A,2 | D,4 || D,2 | C,4 E,2 | %10
 A,,4 B,,2 | C,4 C,2 | B,,4 || B,,2 | C,4 G,,2 | D,4 D,2 | G,,6 |][M:3/4] x6 | x6 | x6 | x4 || x2 | %22
 x6 | x6 | x4 ||[M:3/4] x2 | x6 | x6 | x6 | x4 || x2 | x6 | x6 | x6 |] %34

